X:1
T:Trio Sonata Op. 8
T:Trio Sonata Op. 8
T:Andante
T:Giuseppe Tartini
C:Giuseppe Tartini
%%score [ 1 2 3 ]
L:1/8
Q:1/4=92
M:4/4
K:G
V:1 treble nm="Violin I"
V:2 treble nm="Violin II"
V:3 bass nm="Violoncello"
V:1
"^Andante" z4!f! (vGA) (Bc) | d2 d2 d2 d2 | e2 d2 (gf) (ed) | (ed) (cB) (cB) (AG) | %4
 e2 d2!p! (GF) (ED) | (ED) (CB,) (CB,) (A,G,) | E2 D2 G2 (FG) | A2 D2 A2 (GA) | %8
 B2 D2 B2"_cresc." (AB) | c2 (Bc) d2 (cd) |!f! e2 d2 (ed) (cB) | c2 B2 (cB) (AG) | A4- A(d^cd) | %13
!p! A4- A(d^cd) |!f! A4- A(d^cd) | (Bd) (Ad) (Bd) (Ad) | B2 A2 G2 F2 | G2 F2 E2 D2 | %18
 E2 D2!mf! (dc) (BA) | (^GF) (ED) D2 D2 | D2 C2 (cB) (AG) | (FE) (DC) C2 C2 | %22
 C2 B,2!f! (Bd) (^ce) | d2 A2!p! (Bd) (^ce) | d2 A2!f! (BG) (AF) | (GE) (FD) E4 | %26
 D4!mf! (vdc) (BA) | G2 G2 G2 G2 | A2 G2 (Ad) (Gd) | (Ad) (Gd) (Ad) (Gd) | A2 G2!f! (ed) (cB) | %31
 A2 A2 A2 A2 | B2 A2 (Bd) (Ad) | (Bd) (Ad) (Bd) (Ad) | B2 A2 c2 (BA) | (GF) E2!p! c2 (BA) | %36
 (GF) E2!f! (ed) (cB) | (cB) (AG) (AG) (FE) | F4 z2!p! F2 | (GB) (FB) (GB) (FB) | G2 F2 z2!mf! A2 | %41
 (Bd) (Ad) (Bd) (Ad) | B2 A2!f! (gf) (ed) | e4 (fe) (dc) | d4 (ed) (cB) | c4 (dc) (BA) | %46
 B4!mp! (GA) (_Bc) | d2 d2 d2 d2 | _e2 d2 (g=f) (ed) | (_ed) (c_B) (cB) (AG) | _e2 d2 ^c4 | %51
 d2 A2 B4 | c2 G2 A4 |"_cresc." _B2 =B2 c2 ^c2 | d4!mf! (Bd) (Ad) | (Bd) (Ad) (Bd) (Ad) | %56
 B2 A2 A2 ^G2 | A2 ^G2 A2 G2 | A2 ^G2!f! (eg) (dg) | (eg) (dg) (eg) (dg) | e2 d2 (gf) (ed) | %61
 (d2 e2) (ed) (cB) | B2 c2 (cB) (AG) | (FD) (GE) F4 | G4!p! (gf) (ed) | d2 e2 (ed) (cB) | %66
 B2 c2!f! (cB) (AG) | (Ad) (cA) A4 | G8 |] %69
V:2
 z4!f! (vGA) (Bc) | d2 B2 B2 B2 | c2 B2 z4 | (gf) (ed) (ed) (cB) | c2 B2 z4 | %5
!p! (GF) (ED) (ED) (CB,) | C2 B,2 z4 | z8 | z4 G2"_cresc." (FG) | A2 (GA) B2 (GB) | %10
!f! c2 B2 (cB) (AG) | A2 G2 (AG) (FG) | (FA) (GA) D4- |!p! D(A GA) D4- |!f! D(A GA) D2 F2 | %15
 G2 F2 G2 F2 | G2 F2 (Bd) (Ad) | (Bd) (Ad) (GA) (FA) | G2 F2!mf! =F2 F2 | E2 E2 (ed) (cB) | %20
 (AG) (=FE) E2 E2 | D2 D2 (dc) (BA) | (GF) (ED)!f! G2 G2 | G2 F2!p! G2 G2 | G2 F2!f! (GE) (FD) | %25
 (E^C) (DB,) C4 | D4 z4 | z2!mf! uD2 D2 D2 | E2 D2 E2 D2 | E2 D2 E2 D2 | E2 D2 z4 | %31
 z2!f! uF2 F2 F2 | G2 F2 G2 F2 | G2 F2 G2 F2 | G2 F2 A2 (GF) | E2 B,2!p! A2 (GF) | %36
 E2 B,2!f! G2 G2 | A2 E2 (cB) (AG) |!p! B8- | B8- | B4 d4- | d8- | d4 z4 |!f! (cB) (AG) A4 | %44
 (BA) (GF) G4 | (AG) (FE) F4 | G4 z4 | z2!mp! _B2 B2 B2 | c2 _B2 z4 | (g=f) (_ed) (ed) (c_B) | %50
 c2 _B2 z2 G2 | G2 F2 z2 =F2 | =F2 E2 z2 v^F2 |"_cresc." G2 =F2 E2 _E2 | D4!mf! G2 F2 | %55
 G2 F2 G2 F2 | G2 F2 (ce) (Be) | (ce) (Be) (ce) (Be) | c2 B2!f! c2 B2 | c2 B2 c2 B2 | %60
 c2 B2 (ed) (cB) | B2 c2 (cB) (A^G) | ^G2 A2 (A=G) (FE) | D2 B2 A4 | G4!p! (ed) (cB) | %65
 B2 c2 (cB) (A^G) | ^G2 A2!f! (A=G) (FE) | (FD) (GE) F4 | G8 |] %69
V:3
 z8 | z2!f! uG,,2 G,,2 G,,2 | C,2 G,,2 z4 | z8 | C,2 G,,2 z4 | z8 |!p! C,2 G,,2 B,,2 G,,2 | %7
 D,2 D,,2 F,2 D,2 | (G,2 G,,2) B,,4 | A,,4 G,,4 |!f! C,2 G,,2 C,2 E,2 | D,2 G,,2 C,2 E,2 | %12
 D,2 E,2 F,2 E,2 |!p! D,2 E,2 F,2 E,2 |!f! D,2 E,2 F,2 D,2 | D,4 D,4 | D,4 D,4 | D,2 D2 ^C2 D2 | %18
 A,2 D,2!mf! D,2 D,2 | E,2 E,2 ^G,2 G,2 | A,2 A,2 C,2 C,2 | D,2 D,2 F,2 F,2 | G,2 G,2!f! E,2 A,,2 | %23
 B,,2 F,2!p! E,2 A,,2 | D,2 D,,2!f! G,,2 D,2 | A,2 D,2 A,2 A,,2 | D,4 z4 | z2!mf! uB,,2 B,,2 B,,2 | %28
 C,2 B,,2 C,2 B,,2 | C,2 B,,2 C,2 B,,2 | C,2 B,,2 z4 | z2!f! uD,2 D,2 D,2 | G,2 D,2 G,,2 D,2 | %33
 G,,2 D,2 G,,2 D,2 | G,2 D,2 ^D,2 D,2 | E,2 E,2!p! ^D,2 D,2 | E,2 E,2!f! E,2 E,2 | %37
 A,2 A,2 A,2 A,2 | B,2 B,,2 z2!p! u^D,2 | E,2 ^D,2 E,2 D,2 | E,2 B,,2 z2!mf! uF,2 | %41
 G,2 F,2 G,2 F,2 | G,2 D,2!f! B,,2 G,,2 | C,2 C,2 F,2 F,2 | B,2 B,2 E,2 E,2 | A,2 A,2 D,2 D,2 | %46
 G,2 G,,2 z4 | z2!mp! G,,2 G,,2 G,,2 | C,2 G,,2 z4 | z8 | C,2 G,,2 z2 A,,2 | D,2 D,,2 z2 G,,2 | %52
 C,2 C,,2 z2 D,2 |"_cresc." G,2 G,,2 G,2 G,2 | F,2 D,2 z4 | z8 |!mf! G,2 D,2 z4 | z8 | A,2 E,2 z4 | %59
 z8 |!f! C2 G,2 z4 | z2 C2 C,4 | z2 A,2 A,,2 C2 | C2 (B,C) D2 D,2 | G,4 z4 | z2!p! C2 C,4 | %66
 z2 A,2!f! A,,2 C2 | C2 (B,C) D2 D,2 | G,8 |] %69

